X: 2771
T: Banks, The
R: hornpipe
M: 4/4
K: Gmajor
|:(3DEF|G2 B2 B2 (3dBG|F2 A2 A2 (3BAG|E2 e2 e2 f>g|c>de>d c>BA>G|
D2 d2 d2 e2|E2 e2 e2 f>g|F>GA>B (3cBA (3FGA|(3GAG (3FGA G2:|
|:(3bc’b|b2 B2 B3 b|a2 A2 A3 a|(3gag e2 e2 a>g|f>ed>c d2 A>d|
F>dA>d F>dA>d|G>dB>d G>dB>d|^c>de>f (3gfe c>e|(3ded ^c>e d>=cB>A|
G>Bd>B g>BA>G|F>Ad>A f>AG>F|E>Gc>G e>dc>B|c>BA>G F>ED>(Cc)|
(3Bcd G>d B>dg>d|(3cde G>e c>Ge>G|F>GA>B (3cBA F>A|(3GAG F>A G2:|

